X: 19981
T: Jim Donoghue's
R: reel
M: 4/4
K: Dmajor
|:A2AF BFAF|BFAF EDB,D|A2AF BFAF|EDEF DEFG|
A2AF BFAF|DFF2 ABde|f2fe defe|1 dBAF DEFG:|2 dBAF D2z2||
|:f2fe fgfe|dfed BAFA|Beed e2de|f2df edBd|
f2fe fgfe|dfed BAFA|ABde fdec|1 dBAF D2z2:|2 dBAF DEFG||

